packages/icon/src/svg/link.icon.svg

<?xml version="1.0" encoding="UTF-8"?>
<svg width="24px" height="24px" viewBox="0 0 24 24" version="1.1" xmlns="http://www.w3.org/2000/svg" xmlns:xlink="http://www.w3.org/1999/xlink">
    <!-- Generator: Sketch 46.1 (44463) - http://www.bohemiancoding.com/sketch -->
    <title>Icon/link.icon</title>
    <desc>Created with Sketch.</desc>
    <defs>
        <path d="M16,6 L13,6 L13,7.9 L16,7.9 C18.26,7.9 20.1,9.73 20.1,12 C20.1,13.0873876 19.668037,14.1302387 18.8991378,14.8991378 C18.1302387,15.668037 17.0873876,16.1 16,16.1 L13,16.1 L13,18 L16,18 C19.3137085,18 22,15.3137085 22,12 C22,8.68 19.31,6 16,6 L16,6 Z M3.9,12 C3.9,9.73 5.74,7.9 8,7.9 L11,7.9 L11,6 L8,6 C4.6862915,6 2,8.6862915 2,12 C2,15.3137085 4.6862915,18 8,18 L11,18 L11,16.1 L8,16.1 C5.74,16.1 3.9,14.26 3.9,12 L3.9,12 Z M8,13 L16,13 L16,11 L8,11 L8,13 Z" id="path-1"></path>
    </defs>
    <g id="Symbols" stroke="none" stroke-width="1" fill="none" fill-rule="evenodd">
        <g id="Icon/link">
            <mask id="mask-2" fill="white">
                <use xlink:href="#path-1"></use>
            </mask>
            <use id="Shape" fill="#000000" fill-rule="nonzero" xlink:href="#path-1"></use>
            <g id="Color/Neutral/White" mask="url(#mask-2)" fill="#FFFFFF">
                <rect id="222222-Fill" x="0" y="0" width="24" height="24"></rect>
            </g>
        </g>
    </g>
</svg>

<svg viewBox="0 0 24 24" xmlns="http://www.w3.org/2000/svg"><path d="M16 6h-3v1.9h3c2.26 0 4.1 1.83 4.1 4.1 0 1.0874-.432 2.1302-1.201 2.899-.7688.769-1.8116 1.201-2.899 1.201h-3V18h3c3.3137 0 6-2.6863 6-6 0-3.32-2.69-6-6-6zM3.9 12c0-2.27 1.84-4.1 4.1-4.1h3V6H8c-3.3137 0-6 2.6863-6 6s2.6863 6 6 6h3v-1.9H8c-2.26 0-4.1-1.84-4.1-4.1zM8 13h8v-2H8v2z" /></svg>
